X:1
T:Title
L:1/8
M:4/4
K:Eb
V:1 treble nm="Grand Piano"
V:1
 z4 z2 z[Q:1/4=100] C | GAGF GAGF | EDED C3 C | GAGF GAGF | EDED C2 CD | E2 E2 F2 F2 | EDED C2 CD | %7
 E2 E2 F2 F2 | EDED C2 CD | E2 E2 F2 EF | G2 G4 CD | E2 E2 F2 F2 | EDED C2 CD | E2 E2 F2 F2 | %14
 EDED C2 CD | E2 C2 D2 =B,2 |[M:3/4] D2 ED C2 |[M:1/4] CD |[M:4/4] E4 F2 F2 | EFED C2 CD | %20
 E2 E2 F2 F2 | EFED C2 CD | E2 E2 F2 EF | G2 G4 G2 | c4 d2 dc | BcBA G2 G2 | c2 c2 dedc | %27
 BcBA G2 GA | BA G2 GFEF | G2 G4 G2 | c4 d2 dc | BcBA G2 G2 | c2 c2 dedc | BcBA G2 GA | %34
 BA G2 GFED | GFED C4 |] %36

